X: 174
T: Aşkın ile Gündüz Gece Giryânım
C: Sadi Hoşses
O: Turkey
F: http://compmusic.upf.edu/node/140
N: acemkurdi--sarki--senginsemai--askin_ile--sadi_hosses
N: makam= acemkurdi
N: form= sarki
N: usul= senginsemai = 6/4
M: 6/4
L: 1/16
K: C _B   
Q: 1/4=78
%%MIDI tuningsystem comma53
A4 c4 f4 e2g2 f8  | b3a g3f e3d d2ed c8  | \
w:  ARANAĞME  |   | 
c4 d3c d2e2 (3f2g2a2 b8  | 
w:   | 
a3g f3e d4 e2gf f8  | f4 e4 f4 g2fe e6d2  | \
w:   |   | 
d6c2 c2dc B2A2 B8  | 
w:   | 
A4 B4 B3A G4 A2B2 c2BA  | A8 z4 B2c2 A8  | \
w:   |   | 
f4 f4 f4 e2{a}gf f8  | 
w:  Aş kın_ i le  *  *  *  gün  | 
b4 a2g2 g2f2 f2e2 e4 e2d2  | d2e4dc c4 c4 a4 g2f2  | \
w:  düz  *  *  ge *  ce  *  gir  |  yâ *  *  *  nım_ e fen  | 
e4 f4 c2dc B2BA A8  | 
w:  dim   *  SAZ  | 
f4 f4 f4 e2{a}gf f8  | b4 a2g2 g2f2 f2e2 e4 e2d2  | \
w:  Aş kın_ i le  *  *  *  gün  |  düz  *  *  ge *  ce  *  gir  | 
d2e4dc c4 c4 a4 g2f2  | 
w:  yâ *  *  *  nım_ e fen  | 
e4 f4 z2c2 d2e2 f2g2 a4  | g4 a4 a4 a4 a4 g2f2  | \
w:  dim   *  SAZ  |  Bül bül  gi bi  gül   | 
b6a2 a2g2 g2f2 f4 f2e2  | 
w:  rû *  yi *  ne  *  hay  | 
e6d2 d4 d2c2 c2d2 d2c2  | c8 z2c2 d2e2 f8  | \
w:  ra *  nım_ e *  fen  |  dim   SAZ  | 
f4 f4 f4 f2e2 e6d2  | 
w:  Bül bül  gi bi  *  gül   | 
d6c2 c2dc B2A2 B8  | A4 B4 B2A2 G4 c4 B2A2  | \
w:  rû *  yi *  *  ne  *  hay  |  ra *  nım_ *  e fen  | 
A8 z2g2 f2g2 a8  | 
w:  dim   SAZ  | 
g4 a4 a4 a2{c'}ba a8  | c'6b2 b2a2 a2g2 a3g f4  | \
w:  Bey hû de  i *  *  *  miş   |  ey *  le *  di *  ğim   | 
g4 a4 b3a g4 c'4 b2a2  | 
w:  mihr_ *  ü  *  ve fa  | 
g4 a4 a3g f2g2 a8  | g4 a4 a4 a2ba a8  | \
w:  lar   *  SAZ  |  Bey hû de  i *  *  miş   | 
c'6b2 b2a2 a2g2 a3g f4  | 
w:  ey *  le *  di *  ğim   | 
a4 g4 f4 e4 f2g2 {a}g2f2  | f8 z2c2 d2e2 f2g2 a4  | \
w:  mihr_ *  ü  ve fa  |  lar  SAZ  | 
g4 a4 a4 a4 a4 g2f2  | 
w:  Bül bül  gi bi  gül   | 
b6a2 a2g2 g2f2 f4 f2e2  | e6d2 d4 d2c2 c2d2 d2c2  | \
w:  rû *  yi *  ne  *  hay  |  ra *  nım_ e *  fen  | 
c8 z2c2 d2e2 f8  | 
w:  dim   SAZ  | 
f4 f4 f4 f2e2 e6d2  | d6c2 c2dc B2A2 B8  | \
w:  Bül bül  gi bi  *  gül   |  rû *  yi *  *  ne  *  hay  | 
A4 B4 B2A2 G4 c4 B2A2  | 
w:  ra *  nım_ *  e fen  | 
A8 z2f2 e2d2 c2B2 A4  | |


